public/favicon.svg

<svg xmlns="http://www.w3.org/2000/svg" width="32" height="32" viewBox="0 0 250 250">
  <g transform="scale(0.06103515625 0.06103515625) translate(2048.0 2048.0)">
    <path 
      d="M530.211,1427.3 C1018.88,1427.3 1416.3,1029.88 1416.3,541.211 L1416.3,-589.211 C1416.3,-1077.88 1018.88,-1475.3 530.211,-1475.3 L-600.211,-1475.3 C-1088.88,-1475.3 -1486.3,-1077.88 -1486.3,-589.211 L-1486.3,541.211 C-1486.3,1029.88 -1088.88,1427.3 -600.211,1427.3 L530.211,1427.3 Z" 
      fill="#000000" 
    />
    <path 
      d="M-1.7053e-13,-461.901 L-1.7053e-13,-923.803 L-923.803,2.84217e-13 L-461.901,2.84217e-13 L-1.7053e-13,-461.901 Z" 
      fill="#ffffff" 
    />
    <path 
      d="M-1.7053e-13,461.901 L-1.13687e-13,923.803 L923.803,5.68434e-14 L461.901,1.13687e-13 L-1.7053e-13,461.901 Z" 
      fill="#ffffff" 
    />
    <path 
      d="M-138.31,-2.84217e-13 C-138.31,30.4869 -113.417,55.3799 -82.93,55.3799 L82.93,55.3799 C113.417,55.3799 138.31,30.4869 138.31,-2.84217e-13 C138.31,-30.4869 113.417,-55.3799 82.93,-55.3799 L-82.93,-55.3799 C-113.417,-55.3799 -138.31,-30.4869 -138.31,-2.84217e-13 Z" 
      fill="#ffffff" 
    />
  </g>
</svg>

<svg viewBox="0 0 250.0 250.0" xmlns="http://www.w3.org/2000/svg" xmlns:svg="http://www.w3.org/2000/svg" version="1.1">
 <g class="layer">
  <title>Layer 1</title>
  <g id="document" transform="translate(0.744215 0.909579) scale(1.17961 1.16975) translate(-0.744215 -0.909579) translate(212.444 213.115) matrix(0.0722015 0 0 0.0723739 -103.387 -104.433)">
   <path d="m530.21,1427.3c488.67,0 886.09,-397.42 886.09,-886.09l0,-1130.42c0,-488.67 -397.42,-886.09 -886.09,-886.09l-1130.42,0c-488.67,0 -886.09,397.42 -886.09,886.09l0,1130.42c0,488.67 397.42,886.09 886.09,886.09l1130.42,0z" fill="#000000" fill-opacity="1" id="svg_1"/>
   <path d="m0,-461.9l0,-461.9l-923.8,923.8l461.9,0l461.9,-461.9z" fill="#ffffff" fill-opacity="1" id="svg_2"/>
   <path d="m0,461.9l0,461.9l923.8,-923.8l-461.9,0l-461.9,461.9z" fill="#ffffff" fill-opacity="1" id="svg_3"/>
   <path d="m-138.31,0c0,30.49 24.89,55.38 55.38,55.38l165.86,0c30.49,0 55.38,-24.89 55.38,-55.38c0,-30.49 -24.89,-55.38 -55.38,-55.38l-165.86,0c-30.49,0 -55.38,24.89 -55.38,55.38z" fill="#ffffff" fill-opacity="1" id="svg_4"/>
  </g>
 </g>
</svg>
